Printex-remake/img/icons/catalog/05.svg

<svg width="98" height="98" viewBox="0 0 98 98" fill="none" xmlns="http://www.w3.org/2000/svg">
<rect width="63.0687" height="39.2797" transform="matrix(0.86601 -0.500028 -3.18907e-05 1 11.3818 42.7126)" fill="#F2F2F2"/>
<path d="M11.8809 81.1264L11.8822 40.1301L69.4929 6.86607L69.4916 47.8624L11.8809 81.1264Z" stroke="black" stroke-linejoin="bevel"/>
<path d="M67.6121 4L9.00134 37.8414L9 79.9924" stroke="black" stroke-linejoin="bevel"/>
<path d="M64.6121 2L6.00134 35.8414L6 77.9924" stroke="black" stroke-linejoin="bevel"/>
<path d="M43.7698 47.9209L12.8912 39.6726L68.7404 7.42571L43.7698 47.9209Z" fill="#F2F2F2" stroke="black" stroke-linejoin="bevel"/>
<path d="M29.5 53.5L11.5928 81.6295L69.5 48L59.5 45" stroke="black" stroke-linejoin="bevel"/>
<path d="M70.8853 47.8447L87.9997 50.3447L29.1146 84.3395L12.0001 81.8396L70.8853 47.8447Z" fill="#E6E6E6"/>
<path d="M44.2998 41.6452L44.6796 42.2275L45.0595 41.2066C45.2963 40.5702 45.6916 39.6715 46.2734 38.816C46.8728 37.9345 47.5442 37.2802 48.2796 36.8556C50.3339 35.6695 51.9264 36.6839 51.9263 39.3599C51.9263 40.7797 51.4386 42.2772 50.5177 44.0921C49.5858 45.9285 48.2439 48.0259 46.5777 50.6274L46.5777 50.6274L46.5774 50.6279C46.0148 51.5064 45.3752 52.5049 44.7102 53.5605L44.71 53.5608C44.7018 53.5738 44.691 53.5849 44.6793 53.5917C44.6675 53.5985 44.6568 53.5998 44.6486 53.5963L44.6484 53.5962C43.9838 53.3088 43.3447 53.0489 42.7827 52.8203L42.7813 52.8198L42.7813 52.8198C41.115 52.1422 39.7732 51.5943 38.8413 50.8339C37.9204 50.0825 37.4328 49.1482 37.4328 47.7284C37.4329 45.0523 39.0256 42.1989 41.0799 41.0127C41.8152 40.5881 42.4866 40.4671 43.0861 40.6563L43.351 40.1079L43.0861 40.6563C43.6678 40.84 44.063 41.2823 44.2998 41.6452Z" fill="#F2F2F2" stroke="black"/>
<path d="M46.2998 42.6452L46.6796 43.2275L47.0595 42.2066C47.2963 41.5702 47.6916 40.6715 48.2734 39.816C48.8728 38.9345 49.5442 38.2802 50.2796 37.8556C52.3339 36.6695 53.9264 37.6839 53.9263 40.3599C53.9263 41.7797 53.4386 43.2772 52.5177 45.0921C51.5858 46.9285 50.2439 49.0259 48.5777 51.6274L48.5777 51.6274L48.5774 51.6279C48.0148 52.5064 47.3752 53.5049 46.7102 54.5605L46.71 54.5608C46.7018 54.5738 46.691 54.5849 46.6793 54.5917C46.6675 54.5985 46.6568 54.5998 46.6486 54.5963L46.6484 54.5962C45.9838 54.3088 45.3447 54.0489 44.7827 53.8203L44.7813 53.8198L44.7813 53.8198C43.115 53.1422 41.7732 52.5943 40.8413 51.8339C39.9204 51.0825 39.4328 50.1482 39.4328 48.7284C39.4329 46.0523 41.0256 43.1989 43.0799 42.0127C43.8152 41.5881 44.4866 41.4671 45.0861 41.6563L45.351 41.1079L45.0861 41.6563C45.6678 41.84 46.063 42.2823 46.2998 42.6452Z" fill="white" stroke="black"/>
</svg>

<svg width="98" height="98" fill="none" xmlns="http://www.w3.org/2000/svg"><path fill="#F2F2F2" d="M11.382 42.713L66 11.176v39.28L11.38 81.993z"/><path d="M11.88 81.126l.002-40.996 57.61-33.264v40.996L11.88 81.126z" stroke="#000" stroke-linejoin="bevel"/><path d="M67.612 4L9.002 37.841 9 79.992" stroke="#000" stroke-linejoin="bevel"/><path d="M64.612 2L6.002 35.841 6 77.992" stroke="#000" stroke-linejoin="bevel"/><path d="M43.77 47.92l-30.88-8.246L68.74 7.427 43.77 47.92z" fill="#F2F2F2" stroke="#000" stroke-linejoin="bevel"/><path d="M29.5 53.5L11.593 81.63 69.5 48l-10-3" stroke="#000" stroke-linejoin="bevel"/><path d="M70.885 47.845L88 50.345 29.115 84.34 12 81.84l58.885-33.995z" fill="#E6E6E6"/><path d="M44.3 41.645l.38.582.38-1.02c.236-.637.632-1.535 1.213-2.391.6-.882 1.271-1.536 2.007-1.96 2.054-1.187 3.646-.172 3.646 2.504 0 1.42-.487 2.917-1.408 4.732-.932 1.837-2.274 3.934-3.94 6.535h0c-.563.88-1.203 1.878-1.868 2.933h0a.093.093 0 01-.03.032c-.013.007-.023.008-.031.004h0c-.665-.287-1.304-.547-1.866-.776h-.002 0c-1.666-.678-3.008-1.226-3.94-1.986-.92-.752-1.408-1.686-1.408-3.106 0-2.676 1.593-5.53 3.647-6.715.735-.425 1.407-.546 2.006-.357l.265-.548-.265.548c.582.184.977.626 1.214.99z" fill="#F2F2F2" stroke="#000"/><path d="M46.3 42.645l.38.582.38-1.02c.236-.637.632-1.535 1.213-2.391.6-.882 1.271-1.536 2.007-1.96 2.054-1.187 3.646-.172 3.646 2.504 0 1.42-.487 2.917-1.408 4.732-.932 1.837-2.274 3.934-3.94 6.535h0c-.563.88-1.203 1.878-1.868 2.933h0a.093.093 0 01-.03.032c-.013.007-.023.008-.031.004h0c-.665-.287-1.304-.547-1.866-.776h-.002 0c-1.666-.678-3.008-1.226-3.94-1.986-.92-.752-1.408-1.686-1.408-3.106 0-2.676 1.593-5.53 3.647-6.715.735-.425 1.407-.546 2.006-.357l.265-.548-.265.548c.582.184.977.626 1.214.99z" fill="#fff" stroke="#000"/></svg>
